public/assets/brands/mediafusion.svg

<svg fill="none" height="212" viewBox="0 0 212 212" width="212" xmlns="http://www.w3.org/2000/svg" xmlns:xlink="http://www.w3.org/1999/xlink"><clipPath id="a"><path d="m0 0h212v212h-212z"/></clipPath><mask id="b" height="91" maskUnits="userSpaceOnUse" width="91" x="61" y="49"><path d="m106.85 139.99c24.875 0 45.04-20.165 45.04-45.0401 0-24.8749-20.165-45.04-45.04-45.04-24.8749 0-45.04 20.1651-45.04 45.04 0 24.8751 20.1651 45.0401 45.04 45.0401z" fill="#fff"/></mask><g clip-path="url(#a)"><path d="m206 0h-200c-3.31371 0-6 2.68629-6 6v200c0 3.314 2.68629 6 6 6h200c3.314 0 6-2.686 6-6v-200c0-3.31371-2.686-6-6-6z" fill="#f5f5f5"/><g fill="#010101"><g mask="url(#b)"><path d="m138.49 98.0701c-7.44 6.8199-9.5 11.7799-18.81 20.8799-3.92 3.84-6.25 5.26-11.57 3.92-.62-.16-1.57-.76-2.07-1.18-.79-.68-1.03-1.78-1.19-2.81-1.02-7.18.49-14.49 4.28-20.6799l-26.42 15.5999c-.71.42-1.68.83-2.31.28-.38-.33-.45-.89-.49-1.4-.44-7.56 1.96-15.0199 6.74-20.8999-8.78 5.35-15.78 13.1899-20.11 22.5099-.1.21-.19.41-.29.63 7.59 15.61 23.43 25.52 40.78 25.52 25.04 0 45.33-20.3 45.33-45.3299 0-3.04-.3-6.06-.9-9.04-1.75 1.18-6.2 5.77-12.99 12z"/><path d="m109.43 61.92c1.69 6.18-.14 13.2-4.64 17.76-3.75 3.8-9.63 6.96-9.33 12.3 3.72.62 7.47-1.06 10.38-3.43s5.18-5.43 7.71-8.21c6.23-6.81 14.06-11.95 22.78-14.95 1.29 6.94-.51 14.1-4.93 19.6-2.27 2.79-5.16 5.05-7.27 7.96-2.1 2.91-3.34 6.88-1.75 10.11 7.66-6.04 13.82-11.8 21.48-17.84 1.56-1.24 3.91-3.24 6.21-4.37-5.98-18.05-22.97-31.07-43.03-31.07-25.04 0-45.33 20.29-45.33 45.33 0 3.76.46 7.51 1.39 11.15 2.16-5.85 6.22-10.81 10.46-15.39 10.5-11.32 22.58-21.07 35.87-28.95z"/></g><path d="m53.3 161.45v-9.74h1.03c.22-.02.42.13.45.36l.13 1c.34-.43.75-.79 1.21-1.09.47-.28 1.01-.43 1.56-.41.58-.03 1.15.17 1.59.55.43.4.73.91.88 1.48.13-.33.31-.64.54-.91.21-.25.47-.46.75-.63.27-.17.57-.29.88-.37s.63-.11.95-.11c.47 0 .93.07 1.37.24.39.16.74.4 1.02.72.29.34.51.73.64 1.16.15.51.23 1.04.22 1.57v6.2h-1.72v-6.21c0-.76-.17-1.34-.5-1.73-.37-.41-.9-.63-1.45-.59-.27 0-.55.05-.8.15s-.48.25-.67.44c-.2.21-.36.45-.46.73-.12.32-.18.67-.17 1.01v6.2h-1.72v-6.2c0-.78-.16-1.37-.47-1.75-.34-.4-.85-.61-1.38-.58-.42 0-.82.12-1.17.34-.38.25-.72.56-.99.93v7.25h-1.72z"/><path d="m73.69 151.56c.55 0 1.1.09 1.62.29.49.19.92.48 1.29.85.38.39.67.86.85 1.37.21.6.32 1.23.31 1.86.02.18-.01.37-.08.54-.08.1-.2.15-.33.13h-6.51c0 .55.09 1.09.25 1.61.13.42.35.81.64 1.14.26.3.59.54.96.68.4.16.82.23 1.25.23.38 0 .75-.04 1.11-.15.28-.09.54-.19.8-.32.19-.1.38-.21.56-.32.11-.09.25-.14.39-.15.13 0 .25.06.33.16l.48.62c-.22.26-.47.49-.76.67-.3.19-.61.35-.95.47s-.69.22-1.05.27c-.35.06-.71.09-1.07.09-.64 0-1.27-.11-1.86-.34-.56-.22-1.06-.56-1.47-1-.43-.47-.76-1.03-.97-1.63-.24-.72-.36-1.47-.34-2.23 0-.65.1-1.29.31-1.9.2-.57.5-1.09.9-1.53s.89-.79 1.44-1.02c.6-.26 1.25-.38 1.9-.37zm.04 1.26c-.83 0-1.48.24-1.95.72-.51.55-.82 1.24-.89 1.98h5.33c0-.37-.05-.74-.17-1.09-.1-.32-.27-.61-.49-.86-.22-.24-.49-.43-.78-.56-.33-.14-.69-.2-1.05-.2z"/><path d="m87.48 161.45c-.22.02-.42-.14-.46-.36l-.15-1.18c-.4.49-.88.9-1.43 1.22-.56.31-1.2.47-1.84.46-.52 0-1.04-.1-1.52-.32-.46-.22-.86-.54-1.16-.95-.34-.47-.59-1-.74-1.56-.18-.7-.27-1.42-.26-2.14 0-.68.09-1.36.29-2.01.17-.58.45-1.13.83-1.61.36-.45.81-.82 1.32-1.07.55-.27 1.15-.4 1.76-.39.53 0 1.05.09 1.53.3.43.21.82.49 1.14.85v-5.4h1.71v14.16zm-3.34-1.24c.52 0 1.03-.12 1.48-.39.45-.29.84-.65 1.16-1.09v-4.71c-.27-.38-.62-.68-1.03-.89-.39-.18-.82-.26-1.25-.26-.9 0-1.6.32-2.09.97s-.73 1.57-.73 2.77c0 .55.05 1.09.16 1.63.09.4.25.78.48 1.12.2.28.47.5.79.64.33.14.68.21 1.03.21z"/><path d="m93.96 148.65c0 .16-.03.32-.1.47-.07.14-.16.27-.27.38-.23.23-.54.36-.87.36-.16 0-.32-.03-.47-.1-.14-.06-.27-.15-.38-.26s-.2-.24-.26-.38c-.06-.15-.1-.31-.1-.47s.03-.32.1-.48c.06-.15.15-.28.26-.39s.24-.2.38-.26c.15-.07.31-.1.47-.1s.32.03.48.1c.15.06.28.15.39.26s.2.25.27.39c.07.15.1.31.1.48zm-.37 3.06v9.74h-1.71v-9.74z"/><path d="m103.18 161.45c-.13 0-.27-.02-.38-.08-.11-.08-.18-.19-.21-.32l-.19-.91c-.24.22-.49.43-.76.62-.24.18-.49.34-.76.47s-.56.22-.86.29c-.33.07-.67.11-1.01.1-.36 0-.72-.05-1.07-.16-.32-.1-.62-.26-.87-.48s-.45-.49-.59-.8c-.15-.36-.23-.75-.22-1.15 0-.39.11-.78.32-1.11.26-.4.61-.73 1.03-.95.58-.32 1.21-.54 1.86-.68.92-.2 1.86-.3 2.81-.3v-.76c0-.76-.17-1.33-.49-1.72s-.81-.58-1.43-.58c-.36 0-.72.04-1.06.16-.26.09-.51.21-.74.36-.21.13-.39.25-.54.36-.13.1-.28.15-.45.16-.11 0-.21-.03-.3-.09-.08-.06-.15-.14-.21-.23l-.32-.55c.5-.49 1.09-.89 1.74-1.16.66-.26 1.36-.4 2.07-.39.5 0 .99.08 1.45.27.41.17.77.42 1.07.75.3.34.52.73.65 1.16.15.49.23.99.22 1.5v6.23h-.76zm-3.68-1.04c.28 0 .56-.03.83-.09.24-.06.48-.14.71-.26.22-.12.44-.25.63-.41.21-.17.41-.36.59-.55v-2.03c-.68.02-1.35.08-2.02.19-.47.07-.92.2-1.36.39-.3.12-.56.32-.76.57-.15.21-.24.47-.24.73 0 .23.04.45.13.67.08.18.19.33.34.46.15.12.32.21.51.26.21.06.42.09.63.09v-.02z"/><path d="m107.61 161.45v-8.28l-1.08-.12c-.12-.03-.23-.08-.33-.15-.09-.07-.14-.18-.13-.29v-.7h1.54v-.94c0-.51.07-1.01.24-1.49.14-.41.37-.78.67-1.1.3-.3.66-.53 1.05-.68.44-.16.91-.24 1.39-.23.41 0 .82.06 1.2.19l-.04.86c0 .14-.11.25-.24.25h-.01c-.16 0-.37.02-.63.02s-.54.04-.8.12c-.23.07-.45.2-.62.38-.19.19-.32.43-.4.68-.1.34-.15.69-.14 1.05v.89h2.81v1.24h-2.74v8.31h-1.74z"/><path d="m115.91 151.71v6.23c0 .74.17 1.31.5 1.71.34.41.85.61 1.54.61.49 0 .98-.12 1.41-.36.46-.25.88-.59 1.22-.99v-7.2h1.71v9.74h-1.02c-.22.02-.42-.14-.46-.36l-.13-1.05c-.41.45-.89.84-1.42 1.13-.56.29-1.18.44-1.81.43-.48 0-.96-.08-1.41-.26-.4-.17-.75-.42-1.03-.75-.29-.34-.5-.74-.62-1.16-.14-.49-.21-1-.21-1.51v-6.21z"/><path d="m131.27 153.32c-.07.13-.21.21-.36.21-.12 0-.23-.04-.33-.11-.12-.07-.27-.15-.45-.24-.2-.1-.41-.18-.63-.24-.28-.08-.57-.11-.87-.11-.26 0-.53.03-.78.11-.21.07-.41.17-.59.3-.16.12-.28.27-.38.45-.09.17-.13.36-.13.55 0 .23.07.45.22.62.16.18.36.33.57.43.26.13.53.24.81.32.3.09.61.19.93.3s.62.22.93.35c.29.12.56.28.81.48.24.19.43.43.57.71.15.31.22.66.21 1.01 0 .42-.08.85-.24 1.24-.16.38-.4.72-.71.99-.34.29-.73.52-1.15.66-.51.17-1.04.25-1.58.24-.63 0-1.26-.1-1.85-.33-.51-.2-.99-.49-1.4-.85l.41-.65c.05-.08.11-.14.18-.19.08-.05.17-.07.27-.07.13 0 .26.05.37.14.13.09.28.19.47.3.21.12.43.22.67.3.32.1.65.14.98.13.3 0 .59-.04.88-.13.23-.08.44-.2.62-.35.16-.14.29-.31.37-.51s.12-.41.12-.62c0-.24-.06-.48-.21-.67-.16-.19-.35-.34-.57-.45-.26-.13-.53-.24-.81-.33-.31-.09-.62-.19-.93-.29s-.62-.22-.93-.35c-.29-.13-.57-.29-.81-.5-.24-.2-.44-.45-.57-.74-.15-.33-.23-.7-.22-1.06 0-.76.33-1.48.9-1.98.32-.27.69-.48 1.09-.62.47-.16.97-.24 1.47-.23.59 0 1.18.09 1.73.3.49.19.94.47 1.32.83l-.39.65z"/><path d="m136.68 148.65c0 .16-.03.32-.1.47-.07.14-.16.27-.27.38-.23.23-.54.36-.87.36-.16 0-.32-.03-.47-.1-.14-.06-.27-.15-.38-.26s-.2-.24-.26-.38c-.06-.15-.1-.31-.1-.47s.03-.32.1-.48c.06-.15.15-.28.26-.39s.24-.2.38-.26c.15-.06.31-.1.47-.1s.32.03.48.1c.15.06.28.15.39.26s.2.25.27.39c.07.15.1.31.1.48zm-.37 3.06v9.74h-1.71v-9.74z"/><path d="m143.81 151.56c.66 0 1.31.11 1.92.36.55.23 1.05.57 1.46 1.01.42.46.73 1 .93 1.58.43 1.35.43 2.8 0 4.15-.2.58-.51 1.12-.93 1.58-.41.44-.91.78-1.46 1.01-1.24.47-2.62.47-3.86 0-.56-.22-1.06-.57-1.47-1.01-.42-.45-.73-.99-.93-1.58-.43-1.35-.43-2.8 0-4.15.2-.59.51-1.13.93-1.58.41-.44.91-.78 1.47-1.01.62-.25 1.27-.37 1.94-.36zm0 8.69c.96 0 1.68-.32 2.15-.97.47-.64.71-1.54.71-2.7s-.24-2.06-.71-2.71c-.48-.65-1.19-.97-2.15-.97-.44 0-.87.07-1.27.25-.36.16-.67.41-.9.72-.25.35-.44.74-.54 1.16-.12.51-.18 1.03-.18 1.55 0 1.15.24 2.05.72 2.7s1.2.97 2.18.97z"/><path d="m151.18 161.45v-9.74h1.03c.22-.02.42.14.45.36l.13 1.06c.41-.46.89-.84 1.42-1.14.56-.3 1.18-.44 1.82-.43.48 0 .96.08 1.41.26.39.17.74.42 1.02.75.28.34.49.74.62 1.17.15.49.21 1 .21 1.51v6.2h-1.72v-6.2c0-.74-.17-1.31-.51-1.72s-.85-.62-1.53-.62c-.5 0-.99.12-1.43.37-.46.26-.86.59-1.21.99v7.18h-1.72z"/></g></g></svg>

<svg width="212" height="212" viewBox="0 0 212 212" fill="none" xmlns="http://www.w3.org/2000/svg">
<g clip-path="url(#clip0_142_2439)">
<path d="M206 0H6C2.68629 0 0 2.68629 0 6V206C0 209.314 2.68629 212 6 212H206C209.314 212 212 209.314 212 206V6C212 2.68629 209.314 0 206 0Z" fill="#F5F5F5"/>
<mask id="mask0_142_2439" style="mask-type:luminance" maskUnits="userSpaceOnUse" x="61" y="49" width="91" height="91">
<path d="M106.85 139.99C131.725 139.99 151.89 119.825 151.89 94.9499C151.89 70.075 131.725 49.9099 106.85 49.9099C81.9751 49.9099 61.81 70.075 61.81 94.9499C61.81 119.825 81.9751 139.99 106.85 139.99Z" fill="white"/>
</mask>
<g mask="url(#mask0_142_2439)">
<path d="M138.49 98.0701C131.05 104.89 128.99 109.85 119.68 118.95C115.76 122.79 113.43 124.21 108.11 122.87C107.49 122.71 106.54 122.11 106.04 121.69C105.25 121.01 105.01 119.91 104.85 118.88C103.83 111.7 105.34 104.39 109.13 98.2001L82.71 113.8C82 114.22 81.03 114.63 80.4 114.08C80.02 113.75 79.95 113.19 79.91 112.68C79.47 105.12 81.87 97.6601 86.65 91.7801C77.87 97.1301 70.87 104.97 66.54 114.29C66.44 114.5 66.35 114.7 66.25 114.92C73.84 130.53 89.68 140.44 107.03 140.44C132.07 140.44 152.36 120.14 152.36 95.1101C152.36 92.0701 152.06 89.0501 151.46 86.0701C149.71 87.2501 145.26 91.8401 138.47 98.0701H138.49Z" fill="#010101"/>
<path d="M109.43 61.92C111.12 68.1 109.29 75.12 104.79 79.68C101.04 83.48 95.16 86.64 95.46 91.98C99.18 92.6 102.93 90.92 105.84 88.55C108.75 86.18 111.02 83.12 113.55 80.34C119.78 73.53 127.61 68.39 136.33 65.39C137.62 72.33 135.82 79.49 131.4 84.99C129.13 87.78 126.24 90.04 124.13 92.95C122.03 95.86 120.79 99.83 122.38 103.06C130.04 97.02 136.2 91.26 143.86 85.22C145.42 83.98 147.77 81.98 150.07 80.85C144.09 62.8 127.1 49.78 107.04 49.78C82 49.78 61.71 70.07 61.71 95.11C61.71 98.87 62.17 102.62 63.1 106.26C65.26 100.41 69.32 95.45 73.56 90.87C84.06 79.55 96.14 69.8 109.43 61.92Z" fill="#010101"/>
</g>
<path d="M53.3 161.45V151.71H54.33C54.55 151.69 54.75 151.84 54.78 152.07L54.91 153.07C55.25 152.64 55.66 152.28 56.12 151.98C56.59 151.7 57.13 151.55 57.68 151.57C58.26 151.54 58.83 151.74 59.27 152.12C59.7 152.52 60 153.03 60.15 153.6C60.28 153.27 60.46 152.96 60.69 152.69C60.9 152.44 61.16 152.23 61.44 152.06C61.71 151.89 62.01 151.77 62.32 151.69C62.63 151.61 62.95 151.58 63.27 151.58C63.74 151.58 64.2 151.65 64.64 151.82C65.03 151.98 65.38 152.22 65.66 152.54C65.95 152.88 66.17 153.27 66.3 153.7C66.45 154.21 66.53 154.74 66.52 155.27V161.47H64.8V155.26C64.8 154.5 64.63 153.92 64.3 153.53C63.93 153.12 63.4 152.9 62.85 152.94C62.58 152.94 62.3 152.99 62.05 153.09C61.8 153.19 61.57 153.34 61.38 153.53C61.18 153.74 61.02 153.98 60.92 154.26C60.8 154.58 60.74 154.93 60.75 155.27V161.47H59.03V155.27C59.03 154.49 58.87 153.9 58.56 153.52C58.22 153.12 57.71 152.91 57.18 152.94C56.76 152.94 56.36 153.06 56.01 153.28C55.63 153.53 55.29 153.84 55.02 154.21V161.46H53.3V161.45Z" fill="#010101"/>
<path d="M73.69 151.56C74.24 151.56 74.79 151.65 75.31 151.85C75.8 152.04 76.23 152.33 76.6 152.7C76.98 153.09 77.27 153.56 77.45 154.07C77.66 154.67 77.77 155.3 77.76 155.93C77.78 156.11 77.75 156.3 77.68 156.47C77.6 156.57 77.48 156.62 77.35 156.6H70.84C70.84 157.15 70.93 157.69 71.09 158.21C71.22 158.63 71.44 159.02 71.73 159.35C71.99 159.65 72.32 159.89 72.69 160.03C73.09 160.19 73.51 160.26 73.94 160.26C74.32 160.26 74.69 160.22 75.05 160.11C75.33 160.02 75.59 159.92 75.85 159.79C76.04 159.69 76.23 159.58 76.41 159.47C76.52 159.38 76.66 159.33 76.8 159.32C76.93 159.32 77.05 159.38 77.13 159.48L77.61 160.1C77.39 160.36 77.14 160.59 76.85 160.77C76.55 160.96 76.24 161.12 75.9 161.24C75.56 161.36 75.21 161.46 74.85 161.51C74.5 161.57 74.14 161.6 73.78 161.6C73.14 161.6 72.51 161.49 71.92 161.26C71.36 161.04 70.86 160.7 70.45 160.26C70.02 159.79 69.69 159.23 69.48 158.63C69.24 157.91 69.12 157.16 69.14 156.4C69.14 155.75 69.24 155.11 69.45 154.5C69.65 153.93 69.95 153.41 70.35 152.97C70.75 152.53 71.24 152.18 71.79 151.95C72.39 151.69 73.04 151.57 73.69 151.58V151.56ZM73.73 152.82C72.9 152.82 72.25 153.06 71.78 153.54C71.27 154.09 70.96 154.78 70.89 155.52H76.22C76.22 155.15 76.17 154.78 76.05 154.43C75.95 154.11 75.78 153.82 75.56 153.57C75.34 153.33 75.07 153.14 74.78 153.01C74.45 152.87 74.09 152.81 73.73 152.81V152.82Z" fill="#010101"/>
<path d="M87.48 161.45C87.26 161.47 87.06 161.31 87.02 161.09L86.87 159.91C86.47 160.4 85.99 160.81 85.44 161.13C84.88 161.44 84.24 161.6 83.6 161.59C83.08 161.59 82.56 161.49 82.08 161.27C81.62 161.05 81.22 160.73 80.92 160.32C80.58 159.85 80.33 159.32 80.18 158.76C80 158.06 79.91 157.34 79.92 156.62C79.92 155.94 80.01 155.26 80.21 154.61C80.38 154.03 80.66 153.48 81.04 153C81.4 152.55 81.85 152.18 82.36 151.93C82.91 151.66 83.51 151.53 84.12 151.54C84.65 151.54 85.17 151.63 85.65 151.84C86.08 152.05 86.47 152.33 86.79 152.69V147.29H88.5V161.45H87.48ZM84.14 160.21C84.66 160.21 85.17 160.09 85.62 159.82C86.07 159.53 86.46 159.17 86.78 158.73V154.02C86.51 153.64 86.16 153.34 85.75 153.13C85.36 152.95 84.93 152.87 84.5 152.87C83.6 152.87 82.9 153.19 82.41 153.84C81.92 154.49 81.68 155.41 81.68 156.61C81.68 157.16 81.73 157.7 81.84 158.24C81.93 158.64 82.09 159.02 82.32 159.36C82.52 159.64 82.79 159.86 83.11 160C83.44 160.14 83.79 160.21 84.14 160.21Z" fill="#010101"/>
<path d="M93.96 148.65C93.96 148.81 93.93 148.97 93.86 149.12C93.79 149.26 93.7 149.39 93.59 149.5C93.36 149.73 93.05 149.86 92.72 149.86C92.56 149.86 92.4 149.83 92.25 149.76C92.11 149.7 91.98 149.61 91.87 149.5C91.76 149.39 91.67 149.26 91.61 149.12C91.55 148.97 91.51 148.81 91.51 148.65C91.51 148.49 91.54 148.33 91.61 148.17C91.67 148.02 91.76 147.89 91.87 147.78C91.98 147.67 92.11 147.58 92.25 147.52C92.4 147.45 92.56 147.42 92.72 147.42C92.88 147.42 93.04 147.45 93.2 147.52C93.35 147.58 93.48 147.67 93.59 147.78C93.7 147.89 93.79 148.03 93.86 148.17C93.93 148.32 93.96 148.48 93.96 148.65ZM93.59 151.71V161.45H91.88V151.71H93.59Z" fill="#010101"/>
<path d="M103.18 161.45C103.05 161.45 102.91 161.43 102.8 161.37C102.69 161.29 102.62 161.18 102.59 161.05L102.4 160.14C102.16 160.36 101.91 160.57 101.64 160.76C101.4 160.94 101.15 161.1 100.88 161.23C100.61 161.36 100.32 161.45 100.02 161.52C99.69 161.59 99.35 161.63 99.01 161.62C98.65 161.62 98.29 161.57 97.94 161.46C97.62 161.36 97.32 161.2 97.07 160.98C96.82 160.76 96.62 160.49 96.48 160.18C96.33 159.82 96.25 159.43 96.26 159.03C96.26 158.64 96.37 158.25 96.58 157.92C96.84 157.52 97.19 157.19 97.61 156.97C98.19 156.65 98.82 156.43 99.47 156.29C100.39 156.09 101.33 155.99 102.28 155.99V155.23C102.28 154.47 102.11 153.9 101.79 153.51C101.47 153.12 100.98 152.93 100.36 152.93C100 152.93 99.64 152.97 99.3 153.09C99.04 153.18 98.79 153.3 98.56 153.45C98.35 153.58 98.17 153.7 98.02 153.81C97.89 153.91 97.74 153.96 97.57 153.97C97.46 153.97 97.36 153.94 97.27 153.88C97.19 153.82 97.12 153.74 97.06 153.65L96.74 153.1C97.24 152.61 97.83 152.21 98.48 151.94C99.14 151.68 99.84 151.54 100.55 151.55C101.05 151.55 101.54 151.63 102 151.82C102.41 151.99 102.77 152.24 103.07 152.57C103.37 152.91 103.59 153.3 103.72 153.73C103.87 154.22 103.95 154.72 103.94 155.23V161.46H103.18V161.45ZM99.5 160.41C99.78 160.41 100.06 160.38 100.33 160.32C100.57 160.26 100.81 160.18 101.04 160.06C101.26 159.94 101.48 159.81 101.67 159.65C101.88 159.48 102.08 159.29 102.26 159.1V157.07C101.58 157.09 100.91 157.15 100.24 157.26C99.77 157.33 99.32 157.46 98.88 157.65C98.58 157.77 98.32 157.97 98.12 158.22C97.97 158.43 97.88 158.69 97.88 158.95C97.88 159.18 97.92 159.4 98.01 159.62C98.09 159.8 98.2 159.95 98.35 160.08C98.5 160.2 98.67 160.29 98.86 160.34C99.07 160.4 99.28 160.43 99.49 160.43V160.41H99.5Z" fill="#010101"/>
<path d="M107.61 161.45V153.17L106.53 153.05C106.41 153.02 106.3 152.97 106.2 152.9C106.11 152.83 106.06 152.72 106.07 152.61V151.91H107.61V150.97C107.61 150.46 107.68 149.96 107.85 149.48C107.99 149.07 108.22 148.7 108.52 148.38C108.82 148.08 109.18 147.85 109.57 147.7C110.01 147.54 110.48 147.46 110.96 147.47C111.37 147.47 111.78 147.53 112.16 147.66L112.12 148.52C112.12 148.66 112.01 148.77 111.88 148.77H111.87C111.71 148.77 111.5 148.79 111.24 148.79C110.98 148.79 110.7 148.83 110.44 148.91C110.21 148.98 109.99 149.11 109.82 149.29C109.63 149.48 109.5 149.72 109.42 149.97C109.32 150.31 109.27 150.66 109.28 151.02V151.91H112.09V153.15H109.35V161.46H107.61V161.45Z" fill="#010101"/>
<path d="M115.91 151.71V157.94C115.91 158.68 116.08 159.25 116.41 159.65C116.75 160.06 117.26 160.26 117.95 160.26C118.44 160.26 118.93 160.14 119.36 159.9C119.82 159.65 120.24 159.31 120.58 158.91V151.71H122.29V161.45H121.27C121.05 161.47 120.85 161.31 120.81 161.09L120.68 160.04C120.27 160.49 119.79 160.88 119.26 161.17C118.7 161.46 118.08 161.61 117.45 161.6C116.97 161.6 116.49 161.52 116.04 161.34C115.64 161.17 115.29 160.92 115.01 160.59C114.72 160.25 114.51 159.85 114.39 159.43C114.25 158.94 114.18 158.43 114.18 157.92V151.71H115.91Z" fill="#010101"/>
<path d="M131.27 153.32C131.2 153.45 131.06 153.53 130.91 153.53C130.79 153.53 130.68 153.49 130.58 153.42C130.46 153.35 130.31 153.27 130.13 153.18C129.93 153.08 129.72 153 129.5 152.94C129.22 152.86 128.93 152.83 128.63 152.83C128.37 152.83 128.1 152.86 127.85 152.94C127.64 153.01 127.44 153.11 127.26 153.24C127.1 153.36 126.98 153.51 126.88 153.69C126.79 153.86 126.75 154.05 126.75 154.24C126.75 154.47 126.82 154.69 126.97 154.86C127.13 155.04 127.33 155.19 127.54 155.29C127.8 155.42 128.07 155.53 128.35 155.61C128.65 155.7 128.96 155.8 129.28 155.91C129.6 156.02 129.9 156.13 130.21 156.26C130.5 156.38 130.77 156.54 131.02 156.74C131.26 156.93 131.45 157.17 131.59 157.45C131.74 157.76 131.81 158.11 131.8 158.46C131.8 158.88 131.72 159.31 131.56 159.7C131.4 160.08 131.16 160.42 130.85 160.69C130.51 160.98 130.12 161.21 129.7 161.35C129.19 161.52 128.66 161.6 128.12 161.59C127.49 161.59 126.86 161.49 126.27 161.26C125.76 161.06 125.28 160.77 124.87 160.41L125.28 159.76C125.33 159.68 125.39 159.62 125.46 159.57C125.54 159.52 125.63 159.5 125.73 159.5C125.86 159.5 125.99 159.55 126.1 159.64C126.23 159.73 126.38 159.83 126.57 159.94C126.78 160.06 127 160.16 127.24 160.24C127.56 160.34 127.89 160.38 128.22 160.37C128.52 160.37 128.81 160.33 129.1 160.24C129.33 160.16 129.54 160.04 129.72 159.89C129.88 159.75 130.01 159.58 130.09 159.38C130.17 159.18 130.21 158.97 130.21 158.76C130.21 158.52 130.15 158.28 130 158.09C129.84 157.9 129.65 157.75 129.43 157.64C129.17 157.51 128.9 157.4 128.62 157.31C128.31 157.22 128 157.12 127.69 157.02C127.38 156.92 127.07 156.8 126.76 156.67C126.47 156.54 126.19 156.38 125.95 156.17C125.71 155.97 125.51 155.72 125.38 155.43C125.23 155.1 125.15 154.73 125.16 154.37C125.16 153.61 125.49 152.89 126.06 152.39C126.38 152.12 126.75 151.91 127.15 151.77C127.62 151.61 128.12 151.53 128.62 151.54C129.21 151.54 129.8 151.63 130.35 151.84C130.84 152.03 131.29 152.31 131.67 152.67L131.28 153.32H131.27Z" fill="#010101"/>
<path d="M136.68 148.65C136.68 148.81 136.65 148.97 136.58 149.12C136.51 149.26 136.42 149.39 136.31 149.5C136.08 149.73 135.77 149.86 135.44 149.86C135.28 149.86 135.12 149.83 134.97 149.76C134.83 149.7 134.7 149.61 134.59 149.5C134.48 149.39 134.39 149.26 134.33 149.12C134.27 148.97 134.23 148.81 134.23 148.65C134.23 148.49 134.26 148.33 134.33 148.17C134.39 148.02 134.48 147.89 134.59 147.78C134.7 147.67 134.83 147.58 134.97 147.52C135.12 147.46 135.28 147.42 135.44 147.42C135.6 147.42 135.76 147.45 135.92 147.52C136.07 147.58 136.2 147.67 136.31 147.78C136.42 147.89 136.51 148.03 136.58 148.17C136.65 148.32 136.68 148.48 136.68 148.65ZM136.31 151.71V161.45H134.6V151.71H136.31Z" fill="#010101"/>
<path d="M143.81 151.56C144.47 151.56 145.12 151.67 145.73 151.92C146.28 152.15 146.78 152.49 147.19 152.93C147.61 153.39 147.92 153.93 148.12 154.51C148.55 155.86 148.55 157.31 148.12 158.66C147.92 159.24 147.61 159.78 147.19 160.24C146.78 160.68 146.28 161.02 145.73 161.25C144.49 161.72 143.11 161.72 141.87 161.25C141.31 161.03 140.81 160.68 140.4 160.24C139.98 159.79 139.67 159.25 139.47 158.66C139.04 157.31 139.04 155.86 139.47 154.51C139.67 153.92 139.98 153.38 140.4 152.93C140.81 152.49 141.31 152.15 141.87 151.92C142.49 151.67 143.14 151.55 143.81 151.56ZM143.81 160.25C144.77 160.25 145.49 159.93 145.96 159.28C146.43 158.64 146.67 157.74 146.67 156.58C146.67 155.42 146.43 154.52 145.96 153.87C145.48 153.22 144.77 152.9 143.81 152.9C143.37 152.9 142.94 152.97 142.54 153.15C142.18 153.31 141.87 153.56 141.64 153.87C141.39 154.22 141.2 154.61 141.1 155.03C140.98 155.54 140.92 156.06 140.92 156.58C140.92 157.73 141.16 158.63 141.64 159.28C142.12 159.93 142.84 160.25 143.82 160.25H143.81Z" fill="#010101"/>
<path d="M151.18 161.45V151.71H152.21C152.43 151.69 152.63 151.85 152.66 152.07L152.79 153.13C153.2 152.67 153.68 152.29 154.21 151.99C154.77 151.69 155.39 151.55 156.03 151.56C156.51 151.56 156.99 151.64 157.44 151.82C157.83 151.99 158.18 152.24 158.46 152.57C158.74 152.91 158.95 153.31 159.08 153.74C159.23 154.23 159.29 154.74 159.29 155.25V161.45H157.57V155.25C157.57 154.51 157.4 153.94 157.06 153.53C156.72 153.12 156.21 152.91 155.53 152.91C155.03 152.91 154.54 153.03 154.1 153.28C153.64 153.54 153.24 153.87 152.89 154.27V161.45H151.17H151.18Z" fill="#010101"/>
</g>
<defs>
<clipPath id="clip0_142_2439">
<rect width="212" height="212" fill="white"/>
</clipPath>
</defs>
</svg>
